X: 40557
T: Tommy Peoples'
R: mazurka
M: 3/4
K: Gmajor
|:B,>C D<B,D2|G>F E<CE2|A>B c<AF2|E>F E<DB,2|
B,>C D<B,D2|G>F E<CE2|A>B c>A F>D|E>FG4:|
|:B>d d>B G>D|D>G F>E E2|A>B c<AF2|E>F E<DB,2|
B>d d>B G>D|D>G F>E E2|A>B c>A F>D|E>FG4:|

